X:1
T:Title
%%score 1 ( 2 3 )
L:1/8
Q:1/4=90
M:4/4
K:A
V:1 treble nm="Strings 1, Soprano"
V:2 bass nm="Strings 1, Bass"
V:3 bass 
V:1
 z4 z2 [CE]2 | [CE][Ec][Ec][DB] [CA]2 [CE]2 | [DF][DF][DF][EG] [FA]2 [DF]2 | %3
w: 1.~I'll~|fol low~ Je sus~ here,~ I'll~|nev er,~ nev er~ fear,~ Though~|
 [CE][CA][CA][CA] [EA]2 [Ec]2 | [EB]6 [DE]2 | [CE][Ec][Ec][DB] [CA]2 [CE]2 | %6
w: Sa tan's~ tempt ing~ pow'rs~ as|sail;~ And~|though~ I'm~ tempt ed~ sore,~ I'll~|
 [DF][DF][DF][EG] [FA]2 [DF]2 | [CE][CA][CA][DB] [Ec]2 [DB]2 | [CA]6 [CE]2 | %9
w: trust~ Him~ ev er more,~ For~|through~ His~ grace~ I~ shall~ pre|vail.~ *|
 [CE] [Ec]3- [Ec]2 [CA]2 | [DF] [FA]3- [FA]2 [DF]2 | [CE][EA][EA][EA] [EA]2 [DG][CA] | %12
w: |||
 [EB]6 [DE]2 | [CE] [Ec]3- [Ec]2 [CA]2 | [DF] [FA]3- [FA]2 [Fd][Fd] | %15
w: |||
 [Ec][Ec][DB][CA] [Ec]2 [DB]2 | [CA]6 z2 |] %17
w: ||
V:2
 z4 z2 [A,,A,]2 | [A,,A,][A,,A,][A,,A,][A,,A,] [A,,A,]2 [A,,A,]2 | %2
 [D,A,][D,A,][D,A,][D,A,] [D,A,]2 [D,A,]2 | [A,,A,][A,,E,][A,,E,][A,,E,] [C,A,]2 [A,,A,]2 | %4
 [E,G,]6 [E,G,]2 | [A,,A,][A,,A,][A,,A,][A,,A,] [A,,A,]2 [A,,A,]2 | %6
 [D,A,][D,A,][D,A,][D,A,] [D,A,]2 [D,A,]2 | [E,A,][E,A,][E,A,][E,G,] [E,A,]2 [E,G,]2 | %8
 [A,,A,]6 [A,,A,]2 | [A,,A,][A,,A,][A,,A,][A,,A,] [A,,A,]2 [A,,A,]2 | %10
 [D,A,][D,A,][D,D][D,D] [D,D]2 [D,A,]2 | [A,,A,][A,,C][A,,C][A,,C] [C,A,]2 E,-[A,,E,] | %12
 [E,G,]6 [E,G,]2 | [A,,A,][A,,A,][A,,A,][A,,A,] [A,,A,]2 [A,,A,]2 | %14
 [D,A,][D,A,][D,D][D,D] [D,D]2 [D,A,][D,A,] | [E,A,][E,A,][E,G,][E,A,] [E,A,]2 [E,G,]2 | %16
 [A,,A,]6 z2 |] %17
V:3
 x8 | x8 | x8 | x8 | x8 | x8 | x8 | x8 | x8 | x8 | x8 | z4 z2 .B,,2 | x8 | x8 | x8 | x8 | x8 |] %17

